packages/core/src/svgs/hxro.svg

<svg width="24" height="24" viewBox="0 0 24 24" fill="none" xmlns="http://www.w3.org/2000/svg">
<g clip-path="url(#clip0_31_11646)">
<path d="M0 0H24V24H0V0Z" fill="url(#paint0_linear_31_11646)"/>
<path d="M12.3042 5.14307C14.6614 5.14307 16.5899 6.67735 17.2628 7.4445L16.6199 8.14307L16.5728 8.09592C14.9828 6.64735 14.2242 5.96164 11.8928 5.68307C10.0071 5.45592 8.03564 6.6345 7.28564 7.25592C7.52564 6.87878 9.35993 5.14307 12.3042 5.14307Z" fill="#02FD05"/>
<path d="M12.0171 18.8573C9.62134 18.8573 7.65848 17.3402 6.97705 16.5859L7.62848 15.8916C9.27848 17.353 10.0371 18.0473 12.4371 18.3259C14.3528 18.5487 16.3799 17.383 17.1428 16.7702C16.8985 17.143 15.0085 18.8573 12.0171 18.8573Z" fill="#FF00C8"/>
<path d="M9.61711 12.1069L7.68854 8.87549L7.49139 9.35549L9.28282 12.1069L5.14282 18.8569L9.61711 12.1069Z" fill="#02FD05"/>
<path d="M12.5014 10.0074L14.5714 8.14307L12.1243 10.8859L11.13 9.42878H9.67282L11.2285 11.9659L5.14282 18.8574L10.3714 11.9659L8.34854 8.57164H11.58L12.5057 10.0074H12.5014Z" fill="#02FD05"/>
<path d="M14.4258 12.3127L18.8572 5.57129L14.6658 12.3127L16.5515 15.2441L16.4144 15.767L14.4258 12.3127Z" fill="#FF00C8"/>
<path d="M12.8613 12.3427L18.857 5.57129L13.6928 12.3427L15.7842 15.857H12.5699L11.6528 14.4599L9.42847 16.2856L11.9485 13.4184L13.0499 14.9999H14.5113L12.8613 12.3427Z" fill="#FF00C8"/>
</g>
<defs>
<linearGradient id="paint0_linear_31_11646" x1="4.46571" y1="4.16143" x2="29.2071" y2="32.58" gradientUnits="userSpaceOnUse">
<stop stop-color="#1A1E21"/>
<stop offset="1" stop-color="#06060A"/>
</linearGradient>
<clipPath id="clip0_31_11646">
<rect width="24" height="24" fill="white"/>
</clipPath>
</defs>
</svg>

<svg xmlns="http://www.w3.org/2000/svg" width="24" height="24" fill="none" viewBox="0 0 24 24"><g clip-path="url(#a)"><path fill="url(#b)" d="M0 0h24v24H0z"/><path fill="#02FD05" d="M12.304 5.143c2.357 0 4.286 1.534 4.959 2.302l-.643.698-.047-.047c-1.59-1.449-2.349-2.134-4.68-2.413-1.886-.227-3.857.952-4.607 1.573.24-.377 2.074-2.113 5.018-2.113"/><path fill="#FF00C8" d="M12.017 18.857c-2.396 0-4.359-1.517-5.04-2.271l.651-.694c1.65 1.461 2.41 2.155 4.81 2.434 1.915.223 3.942-.943 4.705-1.556-.245.373-2.135 2.087-5.126 2.087"/><path fill="#02FD05" d="M9.617 12.107 7.69 8.875l-.198.48 1.792 2.752-4.14 6.75z"/><path fill="#02FD05" d="m12.501 10.007 2.07-1.864-2.447 2.743-.994-1.457H9.673l1.556 2.537-6.086 6.891 5.228-6.891L8.35 8.572h3.231l.926 1.435z"/><path fill="#FF00C8" d="m14.426 12.313 4.431-6.742-4.191 6.742 1.886 2.931-.138.523z"/><path fill="#FF00C8" d="m12.861 12.343 5.996-6.772-5.164 6.772 2.091 3.514H12.57l-.917-1.397-2.225 1.826 2.52-2.868L13.05 15h1.461z"/></g><defs><linearGradient id="b" x1="4.466" x2="29.207" y1="4.161" y2="32.58" gradientUnits="userSpaceOnUse"><stop stop-color="#1A1E21"/><stop offset="1" stop-color="#06060A"/></linearGradient><clipPath id="a"><path fill="#fff" d="M0 0h24v24H0z"/></clipPath></defs></svg>
